X:1
T:Prelude
T:Prelude
T:JS BACH
C:JS BACH
%%score ( 1 2 )
L:1/8
Q:1/4=84
M:3/4
K:C
V:1 treble-8 
V:2 treble-8 
V:1
 z c/B/ cG EG | c/d/c/B/ cG EG | C/G/D/G/ E/G/F/G/ E/G/D/G/ | C/c/B/A/ G/c/B/A/ G/F/E/D/ | %4
 C/G/D/G/ E/G/F/G/ E/G/D/G/ | C/c/B/A/ G/c/B/A/ G/F/E/D/ | C/D/E/F/ G/A/B/c/ d/e/f/d/ | %7
 e/G/C/D/ E/F/G/A/ B/c/A/B/ | c/G/F/G/ E/G/F/G/ E/G/D/G/ | C/c/B/A/ G/C/A/C/ G/C/F/C/ | %10
 E/G/D/G/ E/G/F/G/ E/G/D/G/ | C/c/B/A/ G/C/A/C/ G/C/F/C/ | e/c/c/c/ B/c/c/c/ d/c/B/c/ | %13
 c/c/e/c/ d/c/e/c/ f/c/d/c/ | e/c/c/c/ B/c/c/c/ d/c/B/c/ | c/c/e/c/ d/c/e/c/ f/c/d/c/ | %16
 e/c/e/c/ e/c/e/c/ e/c/e/c/ | e/c/e/B/ e/c/e/B/ e/c/e/B/ | e/c/e/_B/ e/c/e/B/ e/c/e/B/ | %19
 f/c/f/A/ f/c/f/A/ f/c/f/A/ | f/c/f/G/ f/c/f/G/ f/c/f/G/ | e/c/e/G/ e/c/e/G/ e/c/e/G/ | %22
 e/c/e/F/ e/c/e/F/ e/c/e/F/ | d/c/d/F/ d/c/d/F/ d/c/d/F/ | d/c/d/E/ d/c/d/E/ d/c/d/E/ | %25
 c/c/c/E/ c/c/c/E/ c/c/c/E/ | c/c/c/D/ c/c/c/D/ c/c/c/D/ | B/c/B/D/ B/c/B/D/ B/c/B/D/ | %28
 C/D/C/D/ E/G/C/D/ E/G/C/D/ | E/F/E/F/ G/c/E/F/ G/c/E/F/ | G/A/G/A/ _B/e/G/A/ B/e/G/A/ | %31
 _B/g/e/c/ _b/g/e/c/ B/A/B/G/ | A,/B,/A,/B,/ ^C/E/A,/B,/ C/E/A,/B,/ | ^C/D/C/D/ E/A/C/D/ E/A/C/D/ | %34
 E/F/E/F/ G/^c/E/F/ G/c/E/F/ | [^CG]/e/^c/A/ g/e/f/d/ c/e/A/G/ | F/A/F/D/ d/B/c/A/ ^G/B/E/D/ | %37
 C/E/C/A,/ C/E/A/E/ c/A/e/A/ | ^G/B/G/E/ e/^d/e/d/ e/B/c/A/ | ^G/B/G/E/ d/^c/d/c/ d/B/=c/A/ | %40
 ^G/B/G/E/ F/E/F/E/ F/B/c/A/ | ^G/d/A/d/ B/d/A/d/ G/d/B/d/ | z/ D/B/D/ ^G/D/B/D/ G/D/B/D/ | %43
 z/ C/A/C/ c/C/A/C/ c/C/A/C/ | z/ D/B/D/ ^G/D/B/D/ G/D/B/D/ | z/ C/A/C/ c/C/A/C/ c/C/A/C/ | %46
 z/ ^D/A/D/ c/D/A/D/ c/D/A/D/ | z/ ^D/A/D/ c/D/A/D/ c/D/A/D/ | z/ E/A/E/ B/E/A/E/ B/E/A/E/ | %49
 z/ D/^G/D/ B/D/G/D/ B/D/G/D/ | C/A/G/F/ E/A/E/D/ C/E/C/B,/ | A,/A/E/D/ C/E/C/B,/ A,/C/A,/G,/ | %52
 z/ D/A/D/ c/D/A/D/ c/D/A/D/ | z/ D/A/D/ c/D/A/D/ c/D/A/D/ | B,/G/^F/E/ D/g/d/c/ B/d/B/A/ | %55
 G/g/d/c/ B/d/B/A/ G/B/G/F/ | z/ _B/c/B/ e/B/g/B/ e/B/c/B/ | E/_B/c/B/ E/B/D/B/ E/B/C/B/ | %58
 A/c/f/e/ f/c/_B/c/ A/c/G/c/ | F/f/e/d/ c/F/d/F/ c/F/_B/F/ | A/c/G/c/ A/c/_B/c/ A/c/G/c/ | %61
 F,/F/E/D/ C/F,/D/F,/ C/F,/_B,/F,/ | A,/F,/F/F,/ E/F,/F/F,/ G/F,/E/F,/ | %63
 F/F,/A/F,/ G/F,/A/F,/ _B/F,/G/F,/ | A/F,/F/F,/ E/F,/F/F,/ G/F,/E/F,/ | %65
 F/F,/A/F,/ G/F,/A/F,/ _B/F,/G/F,/ | A/F,/A/F/ A/F,/A/F/ A/F,/A/F/ | %67
 A/F,/A/E/ A/F,/A/E/ A/F,/A/E/ | A/F,/A/_E/ A/F,/A/E/ A/F,/A/E/ | _B/F,/B/D/ B/F,/B/D/ B/F,/B/D/ | %70
 _B/F,/B/C/ B/F,/B/C/ B/F,/B/C/ | A/F,/A/C/ A/F,/A/C/ A/F,/A/C/ | %72
 A/F,/A/_B,/ A/F,/A/B,/ A/F,/A/B,/ | G/F,/G/_B,/ G/F,/G/B,/ G/F,/G/B,/ | %74
 G/F,/G/A,/ G/F,/G/A,/ G/F,/G/A,/ | F/F,/F/A,/ F/F,/F/A,/ F/F,/F/A,/ | FF/G,/ FF/G,/ FF/G,/ | %77
 EE/G,/ EE/G,/ EE/G,/ | F,/G,/F,/G,/ A,/C/F,/G,/ A,/C/F,/G,/ | %79
 A,/_B,/A,/B,/ C/F/A,/B,/ C/F/A,/B,/ | C/D/C/D/ _E/A/C/D/ E/A/C/D/ | %81
 _E/c/A/_B/ c/A/^F/G/ A/F/D/C/ | _B,/A,/G,/A,/ B,/D/G,/A,/ B,/D/G,/A,/ | %83
 _B,/C/B,/C/ D/G/B,/C/ D/G/B,/C/ | D/E/D/E/ F/B/D/E/ F/B/D/E/ | F/d/B/c/ d/B/^G/A/ B/G/E/D/ | %86
 C/G/E/F/ G/E/^C/D/ E/C/A,/G,/ | F,/A/F/G/ A/F/D/E/ F/D/_B,/A,/ | G,/_B/G/A/ B/G/E/F/ G/E/^C/E/ | %89
 A,/B,/A,/B,/ ^C/E/A,/B,/ C/E/A,/B,/ | ^C/D/C/D/ E/G/C/D/ E/G/C/D/ | E/F/E/F/ G/_B/E/F/ G/B/E/F/ | %92
 G/_B/G/E/ ^C/G/E/C/ A,/G/F/E/ | z/ e/f/d/ z/ f/e/d/ z/ e/d/^c/ | %94
 z/ ^c/d/_B/ z/ d/=c/B/ z/ c/B/A/ | z/ A/_B/G/ z/ B/A/G/ z/ A/G/F/ | E/F/G/F/ E/G/F/G/ E/G/D/G/ | %97
 ^C/D/E/F/ G/C/_B/C/ A/C/G/C/ | z/ f/d/A/ F/A/d/A/ f/d/a/d/ | ^C/E/C/A,/ C/E/A/E/ ^c/A/e/G/ | %100
 F/A/F/D/ F/A/d/A/ f/d/a/d/ | ^c/e/c/A/ a/^g/a/g/ a/e/f/d/ | ^c/e/c/A/ g/^f/g/f/ g/e/=f/d/ | %103
 ^c/e/c/A/ _B/A/B/A/ B/E/F/D/ | ^C/E/A/g/ g/e/f/d/ ^c/e/A/G/ | F/A/d/a/ a/f/g/e/ d/f/_B/A/ | %106
 G/_B/_E/D/ ^C/=E/C/A,/ F,/A,/D/E/ | F/D/G/D/ A/D/_B/D/ A,/D/E/^C/ | D/F/E/F/ F/F/E/F/ D/F/C/F/ | %109
 B,/F/C/F/ D/F/E/F/ F/F/D/F/ | E/F/E/D/ C/c/B/c/ A/c/G/c/ | ^F/c/G/c/ A/c/B/c/ c/c/A/c/ | %112
 B/c/B/A/ G/A/B/c/ d/e/f/d/ | g/G/F/G/ E/G/D/G/ C/G/_B,/G/ | A,/C/D/E/ F/G/A/_B/ c/d/e/c/ | %115
 f/F/E/F/ D/F/C/F/ B,/F/A,/F/ | G,/B,/C/D/ E/F/G/A/ B/c/d/B/ | E/C/_B,/C/ A,/C/G,/C/ F,/C/E,/C/ | %118
 z/ C/A/G/ A/c/f/e/ f/d/A/c/ | z/ D/B/A/ B/d/f/e/ f/d/B/d/ | z/ E/G/F/ G/c/e/d/ e/c/G/c/ | %121
 z/ ^F/A/G/ A/c/^f/e/ f/c/A/c/ | B/g/^f/e/ d/g/d/c/ B/d/B/A/ | G/g/f/e/ d/f/d/c/ B/d/B/A/ | %124
 G/f/e/d/ c/e/c/B/ A/c/A/G/ | F/e/d/c/ B/d/B/A/ G/B/G/F/ | E/c/A/G/ F/A/F/E/ D/F/D/C/ | %127
 B,/D/F/A/ G/B/d/e/ f/e/f/d/ | E/C/E/G/ c/G/E/C/ z/ D/c/B/ | c/g/e/c/ _B/c/A/c/ B/c/G/c/ | %130
 A/c/f/c/ A/c/G/c/ A/c/F/c/ | G/c/e/c/ G/c/F/c/ G/c/E/c/ | F/c/d/c/ B/c/c/c/ d/c/e/c/ | %133
 G<[DBf]- [DBf]g C<[CGce] | z/ f/e/[df]/ [Be]/d/[de]/[de]/ [de]<[de] | C/c/B/A/ G/c/F/c/ E/c/D/c/ | %136
 C/c/B/A/ G/c/F/c/ E/c/D/c/ | C/E/G/B/ C/E/G/B/ c/G/E/C/ | C4 z2 |] z6 |] %140
V:2
 C2 z2 z2 | x6 | C2 z2 z2 | x6 | C2 z2 z2 | x6 | C2 z2 z2 | x6 | C2 z2 z2 | x6 | C2 z2 z2 | x6 | %12
 C2 z2 z2 | x6 | C2 z2 z2 | x6 | C2 z2 z2 | x6 | x6 | x6 | x6 | x6 | x6 | x6 | x6 | x6 | x6 | x6 | %28
 C2 z2 z2 | C2 z2 z2 | E2 z2 z2 | E2 z2 z2 | x6 | x6 | x6 | ^C2 z2 z2 | D2 z2 z2 | A,2 z2 z2 | %38
 E,2 z2 z2 | E,2 z2 z2 | E,2 z2 z2 | x6 | E,2 z2 z2 | E,2 z2 z2 | E,2 z2 z2 | E,2 z2 z2 | %46
 E,2 z2 z2 | E,2 z2 z2 | E,2 z2 z2 | E,2 z2 z2 | A,2 z2 z2 | x6 | ^F,2 z2 z2 | ^F,2 z2 z2 | %54
 G,2 z2 z2 | x6 | E2 z2 z2 | C2 z2 z2 | F2 z2 z2 | x6 | F2 z2 z2 | x6 | x6 | x6 | x6 | x6 | x6 | %67
 x6 | x6 | x6 | x6 | x6 | x6 | x6 | x6 | x6 | z/ F/ z z/ F/ z z/ F/ z | z/ F/ z z/ F/ z z/ F/ z | %78
 x6 | x6 | x6 | ^F2 z2 z2 | x6 | x6 | x6 | ^G2 z2 z2 | ^C2 z2 z2 | F2 z2 z2 | G2 z2 z2 | %89
 G,2 z2 z2 | E,2 z2 z2 | ^C2 z2 z2 | z2 A,2 ^C2 | D2 G,2 A,2 | _B,2 E,2 ^F,2 | G,2 ^C2 D2 | %96
 _B,2 z2 z2 | A,2 z2 z2 | D2 z2 z2 | A2 z2 z2 | A,2 z2 z2 | A,2 z2 z2 | A,2 z2 z2 | A,2 z2 z2 | %104
 A,2 z2 z2 | D2 z2 z2 | G,2 z2 F,2 | z2 z G, A,2 | D,2 z2 z2 | E,2 z2 z2 | C2 z2 z2 | D2 z2 z2 | %112
 G,2 z2 F,2 | E,2 z2 z2 | F,2 z2 E,2 | D2 z2 z2 | E,2 z2 D2 | C2 z2 z2 | F,2 z2 z2 | G,2 z2 z2 | %120
 G,2 z2 z2 | G,2 z2 z2 | G,2 z2 z2 | G,2 z2 z2 | B,2 E,2 C2 | D2 z2 B,2 | C2 A,2 F,2 | %127
 G,2 B,2 G,2 | C2 E2 G2 | C2 z2 z2 | C2 z2 z2 | C2 z2 z2 | D2 z C B, A, | G,4 z2 | [F,CA]2 G2 F2 | %135
 [CE]2 z2 z2 | x6 | x6 | x6 |] x6 |] %140

